!!!OTL:Mailied.
!!!OTL-incipit:TRARIRO DER SOMMER DER IST DO
!!!COM: C. M. v. Weber
!!!ARE: Europa, Mitteleuropa, Deutschland
!!!SCT: F0265
!!!TXL: @@DE
!!!YEM: Copyright 1995, estate of Helmut Schaffrath.
**kern	**text
*ICvox	*
*M2/4	*
*k[]	*
*C:	*
=1	=1
!LO:TX:a:t=Mäßig.	!
{4cc/	1._Tra
4ee/	ri
=2	=2
4dd/	ro!
8r}	.
{8g	der
=3	=3
(8bq/	.
8a)	Som-
8g	-mer
8a	der
8b/	ist
=4	=4
4cc/	do!
8r}	.
{8g	Wir
=5	=5
8g	wol-
8ee/	-len
8ee/	naus
8dd/	in
=6	=6
(16dd/L	Gar-
16cc	.
16b	.
16aJ)	.
8g}	-ten
{8g	und
=7	=7
8a	woll'n
8b/	des
8cc/	Sommers
8dd/	.
=8	=8
4g	war-
8cc/	-ten,
8r}	.
=9	=9
{4cc/	jo,
4ee/	jo,
=10	=10
(<8eeq/	.
4.gg/)}	jo!
{16ee/L	der
16ccJ	.
=11	=11
16gL	Som-
16eJ	.
16gL	-mer
16ccJ	.
8ee/	der
8dd/	ist
=12	=12
4.cc/	do!
8r}	.
==	==
!!!AGN: Jugend - Lied, Jahreszeiten, Sommer
!!!ONB: ESAC (Essen Associative Code) Database: FINK
!!!AMT: simple duple
!!!AIN: vox
!!!EED: Helmut Schaffrath
!!!EEV: 1.0
!!!source: Musikalischer Hausschatz der Deutschen. Eine Sammlung von über 1000 Liedern und Gesängen mit Singstimmen und Klavierbegleitung. Leipzig, Litterarisches Verlags-Haus.
!!!page: 159
!!!ENC: Anna Maria Matuszewska
!!!EEV: 2025/03/13
*-	*-
